src/assets/staffAugmentationServiceImage.svg

<svg xmlns="http://www.w3.org/2000/svg" width="87" height="77" fill="none" viewBox="0 0 87 77"><circle cx="43.2" cy="36.033" r="19.538" fill="#fff"/><circle cx="42.125" cy="36.391" r="24.916" fill="#fff"/><path fill="#2ECC82" d="M26.1957 65.0885C18.0082 66.367 10.3768 65.7493 3.06112 62.5101C-0.0029221 61.1563 -0.925006 57.3461 1.01962 54.5019C2.18927 52.7925 3.85045 51.7691 5.77355 51.1694C7.82581 50.5301 9.9283 50.0597 11.9662 49.3738C14.1835 48.634 14.5387 47.4454 13.3727 45.4236C12.9285 44.6446 12.5493 43.8302 12.2389 42.9888C11.7258 41.6062 11.3168 40.2308 10.305 39.0385C9.62333 38.2305 8.91652 37.0742 10.0539 35.8496C10.5598 35.3038 10.1185 34.4563 10.0539 33.7596C9.55157 27.5972 14.3199 23.7978 20.2398 25.6293C21.2193 25.9309 21.3987 26.2901 21.0363 27.2812C18.062 35.4402 18.9661 43.1396 23.9856 50.2644C24.4771 50.9647 24.556 51.41 23.9856 52.1066C21.5674 54.9795 21.8077 58.3085 22.4679 61.6518C22.8123 63.4618 24.5955 63.9538 26.1957 65.0885Z"/><path fill="#0FAA61" d="M22.181 35.961C22.4608 23.8697 32.062 14.6908 44.1316 14.9816C55.3221 15.251 64.6219 25.0368 64.4102 36.3524C64.1878 48.4294 54.4934 57.54 42.2121 57.224C31.3121 56.9439 21.9227 46.9785 22.181 35.961ZM43.3889 54.545C45.8128 54.547 48.2132 54.0683 50.4513 53.1367C52.6894 52.205 54.7209 50.8388 56.4286 49.1169C58.1362 47.395 59.4861 45.3516 60.4004 43.1046C61.3146 40.8577 61.7751 38.4517 61.7552 36.0256C61.7534 33.5999 61.2714 31.1987 60.3369 28.9606C59.4025 26.7225 58.0342 24.6919 56.311 22.9862C54.5879 21.2806 52.5441 19.9336 50.2978 19.0232C48.0515 18.1128 45.6472 17.657 43.2239 17.6822C40.7998 17.6783 38.3991 18.1555 36.1606 19.0864C33.922 20.0172 31.8901 21.3831 30.1824 23.105C28.4747 24.8269 27.1252 26.8707 26.2118 29.1181C25.2984 31.3655 24.8393 33.7719 24.8611 36.198C24.8615 38.6239 25.3424 41.0257 26.2761 43.2645C27.2097 45.5032 28.5776 47.5344 30.3006 49.2406C32.0236 50.9468 34.0675 52.2941 36.3141 53.2046C38.5607 54.1151 40.9653 54.5707 43.3889 54.545Z"/><path fill="#2ECC82" d="M76.4763 33.8853C76.5265 34.6035 76.3328 35.4474 76.8063 36.3416C77.2225 37.1244 76.9355 38.2808 76.3686 38.8877C74.3702 41.0424 74.7864 44.2061 72.9279 46.429C72.2785 47.2047 72.8095 48.2713 73.771 48.8423C74.9155 49.5246 76.1964 49.8191 77.4773 50.1171C79.7448 50.645 82.0231 51.155 83.9749 52.5375C86.3106 54.1859 87.4264 57.9745 86.3465 60.5781C85.5285 62.5496 82.7228 63.1385 81.2302 61.6554C77.5562 57.9817 73.8715 54.3151 70.2154 50.6235C68.852 49.2481 67.4564 47.9732 65.4005 47.7721C64.2452 47.6572 64.6614 46.9893 64.9449 46.3788C67.5999 40.633 67.9049 34.7687 66.075 28.7499C65.9166 28.2381 65.7322 27.7347 65.5225 27.2417C64.7655 25.4066 64.8408 25.2845 66.8895 25.3025C69.6198 25.324 72.013 26.5091 74.2195 27.8665C76.2933 29.1234 76.5767 31.4469 76.4763 33.8853Z"/><path fill="#0FAA61" d="M84.2512 70.2706C84.1908 71.1945 83.8101 72.0684 83.1748 72.7413C82.4249 73.5098 81.6787 74.2891 80.8893 75.0145C78.9196 76.8101 77.158 76.8316 75.2492 74.9427C71.0837 70.8309 66.9612 66.6831 62.8208 62.539C61.8055 61.5263 60.8511 60.4417 59.7568 59.526C58.2212 58.244 58.7737 56.1863 57.8265 54.6959C57.7404 54.5559 58.092 54.0639 58.3216 53.8125C58.8769 53.1867 59.4687 52.5943 60.094 52.0385C60.8905 51.3454 61.5005 49.8838 62.5015 50.1029C64.2129 50.5015 66.0894 50.462 67.5245 51.9667C72.5978 57.1954 77.7822 62.3163 82.9524 67.4588C83.7186 68.2025 84.1814 69.2046 84.2512 70.2706Z"/><path fill="#2ECC82" d="M39.697 8.72227C39.7293 9.44049 39.3885 10.3347 40.1025 11.2361C40.4864 11.7244 40.1025 12.3385 39.3131 12.4714C34.3301 13.2727 29.7398 15.6663 26.2282 19.2945C25.6541 19.8799 25.3563 19.7326 25.1016 19.0539C24.3338 17.0106 23.5983 14.9672 22.2959 13.1573C21.8223 12.4965 21.5281 11.5449 22.4573 10.7512C22.913 10.3634 22.5757 9.73855 22.504 9.22143C21.5532 2.45934 27.0319 -1.80691 33.3752 0.74997C34.3655 1.14858 35.3593 1.5472 36.3424 1.96737C38.6207 2.94415 39.837 5.30352 39.697 8.72227Z"/><path fill="#2ECC82" d="M64.0227 8.77971C64.1841 9.47998 63.8612 10.3239 64.446 11.1965C64.8981 11.8645 64.5465 12.9921 64.055 13.5559C62.6808 15.118 62.4117 17.068 61.8269 18.9067C61.486 19.984 61.1272 20.0451 60.3164 19.2227C56.8694 15.6889 52.3931 13.3381 47.5292 12.5073C46.4529 12.3134 45.7173 12.001 46.8116 10.8482C47.2458 10.3885 47.0054 9.8391 46.9336 9.31838C46.0008 2.56707 51.1386 -1.62736 57.5465 0.670954C58.7198 1.09111 59.8787 1.56873 61.0089 2.1074C63.1723 3.11651 64.1949 5.37892 64.0227 8.77971Z"/><path fill="#2ECC82" d="M55.3688 57.2096C55.6307 59.5187 56.9618 61.1599 58.5979 62.7974C48.0531 66.5645 37.756 66.5861 27.5485 62.1833C24.9114 61.045 24.1364 56.3585 26.1671 54.2829C26.9565 53.4749 27.3224 54.2829 27.7673 54.642C35.0938 60.5314 43.1952 61.738 52.0142 58.7143C53.1156 58.3157 54.1669 57.7483 55.3688 57.2096Z"/><path fill="#2ECC82" d="M50.6291 49.7078C45.7532 52.1713 41.132 52.1677 36.2776 49.8802C36.8373 49.5965 37.2822 49.4061 37.6912 49.1619C39.0439 48.3324 39.3668 47.1832 38.5667 45.8366C37.6729 44.3531 36.9883 42.753 36.5324 41.0819C36.3755 40.5764 36.1111 40.1108 35.7574 39.7173C34.8532 38.5717 33.7948 37.4405 35.0183 35.7958C35.2945 35.4367 35.0183 34.643 34.9968 34.0541C34.5483 27.0622 40.0915 23.3956 46.4779 26.4481C47.0677 26.7328 47.6753 26.9787 48.297 27.1843C49.8972 27.7086 50.8802 28.8398 51.4651 30.3624C52.3297 32.614 51.5835 35.0596 52.258 37.34C52.2731 37.4297 52.2705 37.5216 52.2502 37.6103C52.2299 37.699 52.1923 37.7829 52.1396 37.8571C50.5215 40.0441 50.2918 42.8236 49.0361 45.1507C47.7122 47.607 47.8557 48.3252 50.6291 49.7078Z"/></svg>

<svg xmlns="http://www.w3.org/2000/svg" width="87" height="77" fill="none"><circle cx="43.2" cy="36.033" r="19.538" fill="#fff"/><circle cx="42.125" cy="36.391" r="24.916" fill="#fff"/><path fill="#2ECC82" d="M26.196 65.088c-8.188 1.279-15.82.661-23.135-2.578-3.064-1.354-3.986-5.164-2.041-8.008 1.17-1.71 2.83-2.733 4.754-3.333 2.052-.639 4.154-1.11 6.192-1.795 2.218-.74 2.573-1.929 1.407-3.95a16.315 16.315 0 0 1-1.134-2.435c-.513-1.383-.922-2.758-1.934-3.95-.682-.809-1.388-1.965-.251-3.19.506-.545.064-1.393 0-2.09-.502-6.162 4.266-9.961 10.186-8.13.98.302 1.159.661.796 1.652-2.974 8.16-2.07 15.859 2.95 22.983.491.7.57 1.146 0 1.843-2.419 2.873-2.178 6.202-1.518 9.545.344 1.81 2.128 2.302 3.728 3.436Z"/><path fill="#0FAA61" d="M22.181 35.961c.28-12.091 9.881-21.27 21.95-20.98 11.191.27 20.49 10.056 20.28 21.371-.223 12.077-9.918 21.188-22.199 20.872-10.9-.28-20.29-10.245-20.031-21.263Zm21.208 18.584a18.339 18.339 0 0 0 13.04-5.428 18.371 18.371 0 0 0 5.326-13.091 18.372 18.372 0 0 0-5.444-13.04 18.34 18.34 0 0 0-13.087-5.304 18.318 18.318 0 0 0-13.042 5.423 18.351 18.351 0 0 0-5.32 13.093A18.366 18.366 0 0 0 30.3 49.241a18.332 18.332 0 0 0 13.088 5.304Z"/><path fill="#2ECC82" d="M76.476 33.885c.05.718-.143 1.562.33 2.457.416.782.13 1.939-.437 2.546-1.999 2.154-1.583 5.318-3.441 7.541-.65.776-.118 1.842.843 2.413 1.144.683 2.425.977 3.706 1.275 2.268.528 4.546 1.038 6.498 2.42 2.336 1.649 3.451 5.438 2.372 8.041-.819 1.972-3.624 2.56-5.117 1.077-3.674-3.673-7.359-7.34-11.015-11.032-1.363-1.375-2.759-2.65-4.815-2.85-1.155-.116-.739-.784-.455-1.394 2.655-5.746 2.96-11.61 1.13-17.63a15.75 15.75 0 0 0-.553-1.507c-.757-1.835-.681-1.957 1.367-1.94 2.73.022 5.124 1.207 7.33 2.564 2.074 1.257 2.358 3.58 2.257 6.02Z"/><path fill="#0FAA61" d="M84.251 70.27a3.977 3.977 0 0 1-1.076 2.471c-.75.769-1.496 1.548-2.286 2.273-1.97 1.796-3.731 1.818-5.64-.071-4.165-4.112-8.288-8.26-12.428-12.404-1.015-1.013-1.97-2.097-3.064-3.013-1.536-1.282-.983-3.34-1.93-4.83-.087-.14.265-.632.495-.883a21.193 21.193 0 0 1 1.772-1.775c.797-.693 1.407-2.154 2.407-1.935 1.712.398 3.588.359 5.024 1.864 5.073 5.228 10.257 10.35 15.427 15.492a4.311 4.311 0 0 1 1.3 2.812Z"/><path fill="#2ECC82" d="M39.697 8.722c.032.718-.309 1.613.405 2.514.384.488 0 1.102-.789 1.235a23.375 23.375 0 0 0-13.085 6.823c-.574.586-.872.439-1.126-.24-.768-2.043-1.504-4.087-2.806-5.897-.474-.66-.768-1.612.161-2.406.456-.388.119-1.012.047-1.53C21.554 2.46 27.032-1.807 33.375.75c.99.399 1.984.797 2.967 1.217 2.279.977 3.495 3.337 3.355 6.755Zm24.326.058c.161.7-.162 1.544.423 2.417.452.668.1 1.795-.391 2.359-1.374 1.562-1.643 3.512-2.228 5.35-.341 1.078-.7 1.14-1.51.317a23.357 23.357 0 0 0-12.788-6.716c-1.076-.194-1.812-.506-.717-1.659.434-.46.193-1.009.122-1.53C46 2.568 51.139-1.627 57.547.671c1.173.42 2.332.898 3.462 1.436 2.163 1.01 3.186 3.272 3.014 6.673Zm-8.654 48.43c.262 2.309 1.593 3.95 3.229 5.587-10.545 3.767-20.842 3.79-31.05-.614-2.637-1.138-3.412-5.825-1.38-7.9.788-.808 1.154 0 1.6.359 7.326 5.89 15.427 7.096 24.246 4.072 1.102-.398 2.153-.966 3.355-1.504Zm-4.739-7.502c-4.877 2.463-9.498 2.46-14.352.172.56-.284 1.004-.474 1.413-.718 1.353-.83 1.676-1.979.876-3.325a18.803 18.803 0 0 1-2.035-4.755 3.668 3.668 0 0 0-.775-1.365c-.904-1.145-1.962-2.276-.739-3.921.276-.36 0-1.153-.021-1.742-.449-6.992 5.095-10.658 11.48-7.606.59.285 1.198.53 1.82.736 1.6.525 2.583 1.656 3.168 3.178.865 2.252.118 4.698.793 6.978a.695.695 0 0 1-.118.517c-1.618 2.187-1.848 4.967-3.104 7.294-1.324 2.456-1.18 3.174 1.593 4.557Z"/></svg>
